X:1
T:Waltz in A Minor
T:Waltz in A Minor (part)
T:B 150 for 2 novice Guitars (easy) 
T:Frederic Chopin
T:Arr. by Axrst.
T:Axrst. 2020
T:Axrst. 2020
C:Frederic Chopin
Z:Axrst. 2020
%%score 1 2
L:1/8
Q:1/4=100
M:3/4
K:C
V:1 treble-8 nm="Guitar 1" snm="Guit1."
V:2 treble-8 nm="Guitar 2" snm="Guit2."
V:1
"^A"!mp! !2!E2 |"^II" !3!A!0!B !1!c2 c2 | !3!d!0!e !1!f4 | !0!B!1!c!3!d"^V"!4!a!3!g!1!f | %4
 !0!e!4!^d !0!e4 | !2!AB c2 c2 | !3!de !1!f4 | !0!B!1!c!3!d"^V"!4!a!3!g!0!B | !1!c2 z2"^B" !2!E2 | %9
"^II" !3!AB !1!c2 c2 | !3!de !1!f4 | !0!B!1!c!3!d"^V"!4!a!3!g!1!f | !0!e!4!^d !0!e4 | %13
 !1!c!3!d !0!e2 e2 | !1!f!3!g"^V" !4!a4 | !0!G2 !4!^F!0!G!3!d!2!=F | !1!E6"^C" || %17
 !0!A,2 !1!!0![ce]4 | !0!D2 !3!!1![df]2 [df]2 | !0!G2 !0!!4![Bg]4 | !3!C2 !0!!1![Gc]2 [Gc]2 | %21
 !0!A,2 !1!!0![ce]4 | !0!D2 !3!!1![df]2 [df]2 | !0!G2 !0!!1![Bf]4 | !3!C2 z2"^D" z2 | %25
 !0!A,2 !2!!1![Ac]4 | !0!D4 z2 | !0!E,2"^II" !2!^F,2"^IV" !4!^G,2 | !0!A,2 !1!!0![ce]2 [ce]2 | %29
 !3!C2 !2!!1![Ac]4 | !0!D4 z2 | !0!E,6 | !0!A,4 z2 |] %33
V:2
 z2 | !0!A,2 !1!!0![ce]4 | !0!D2 [df]2 [df]2 | !0!G2"^III" !0!!4![Bg]4 | !3!C2 !0!!1![Gc]2 [Gc]2 | %5
 !0!A,2 !2!!1![Ac]4 | !0!D2 !1!!3![df]2 [df]2 | !0!G2 !0!!1![Bf]4 | !3!C2 z4 | !0!A,2 !1!!0![ce]4 | %10
 !0!D2 !3!!1![df]2 [df]2 | !0!G2 !0!!4![Bg]4 | !3!C2 !1!!0![ce]2 [ce]2 | !0!A,2 !2!!1![Ac]4 | %14
 !0!D2 !3!!1![df]2 [df]2 | !0!G2 !0!!4![Bg]4 | !3!C2 z2 !2!E2 ||"^II" !3!A!0!B !1!c2 c2 | %18
 !3!d!0!e !1!f4 | !0!B!1!c!3!d"^V"!4!a!3!g!1!f | !0!e!4!^d !0!e4 | !2!A!0!B !1!c2 c2 | %22
 !3!d!0!e !1!f4 | !0!B!1!c!3!d"^V"!4!a!3!g!0!B | !1!c2 z2 !2!E2 |"^II" !3!A!0!B !1!c2 c2 | %26
 !3!d!0!e !1!f4 | z !2!E!1!^D!2!E!0!B!0!=D | !3!C4 z2 | %29
 z"^VIII" !4!c'!3!b!1!a"^VIII"!4!g"^VI"!2!f | !0!e!3!d!2!^c!3!d!0!e!1!f | %31
 !0!e2 !4!^d!0!e!2!f!1!^G | !2!A4 z2 |] %33

